images/icons/arrow.svg

<svg width="38" height="39" viewBox="0 0 38 39" fill="none" xmlns="http://www.w3.org/2000/svg">
<path fill-rule="evenodd" clip-rule="evenodd" d="M37 19.1223C37 29.0634 28.9411 37.1223 19 37.1223C9.05887 37.1223 1 29.0634 1 19.1223C1 9.18119 9.05887 1.12231 19 1.12231C28.9411 1.12231 37 9.18119 37 19.1223ZM19 0.122314C29.4934 0.122314 38 8.6289 38 19.1223C38 29.6157 29.4934 38.1223 19 38.1223C8.50659 38.1223 0 29.6157 0 19.1223C0 8.6289 8.50659 0.122314 19 0.122314Z" fill="white"/>
<g clip-path="url(#clip0)">
<path d="M25.9271 19.7564C25.9269 19.7566 25.9268 19.7568 25.9266 19.757L22.9362 22.7329C22.7122 22.9558 22.3499 22.955 22.1269 22.7309C21.9039 22.5069 21.9048 22.1446 22.1288 21.9216L24.1365 19.9236L12.0166 19.9236C11.7006 19.9236 11.4443 19.6674 11.4443 19.3513C11.4443 19.0352 11.7006 18.779 12.0166 18.779L24.1365 18.779L22.1288 16.7811C21.9048 16.5581 21.904 16.1958 22.1269 15.9717C22.3499 15.7476 22.7123 15.7469 22.9363 15.9698L25.9266 18.9457C25.9268 18.9459 25.9269 18.9461 25.9271 18.9462C26.1513 19.1699 26.1505 19.5335 25.9271 19.7564Z" fill="white"/>
</g>
<defs>
<clipPath id="clip0">
<rect width="14.6506" height="14.6506" fill="white" transform="matrix(1 8.74228e-08 8.74228e-08 -1 11.4443 26.6766)"/>
</clipPath>
</defs>
</svg>

<svg width="38" height="39" fill="none" xmlns="http://www.w3.org/2000/svg"><path fill-rule="evenodd" clip-rule="evenodd" d="M37 19.122c0 9.941-8.059 18-18 18s-18-8.059-18-18c0-9.94 8.059-18 18-18s18 8.06 18 18zm-18-19c10.493 0 19 8.507 19 19 0 10.494-8.507 19-19 19s-19-8.506-19-19c0-10.493 8.507-19 19-19z" fill="#fff"/><g clip-path="url(#clip0)"><path d="M25.927 19.756v.001l-2.99 2.976a.572.572 0 01-.808-.811l2.008-1.998h-12.12a.572.572 0 010-1.145h12.12l-2.008-1.998a.572.572 0 01.807-.811l2.99 2.976h.001a.573.573 0 010 .81z" fill="#fff"/></g><defs><clipPath id="clip0"><path fill="#fff" transform="matrix(1 0 0 -1 11.444 26.677)" d="M0 0h14.651v14.651H0z"/></clipPath></defs></svg>
